flaticon/technology/sata.svg

<svg xmlns="http://www.w3.org/2000/svg" width="32" height="32" viewBox="0 0 24 24">
    <path d="M8.398438 3.199219L4.398438 3.199219C4.179688 3.199219 4 3.378906 4 3.601562 4 3.820312 4.179688 4 4.398438 4L8.398438 4C8.621094 4 8.800781 3.820312 8.800781 3.601562 8.800781 3.378906 8.621094 3.199219 8.398438 3.199219zM8.398438 4.398438L4.398438 4.398438C4.179688 4.398438 4 4.578125 4 4.800781 4 5.019531 4.179688 5.199219 4.398438 5.199219L8.398438 5.199219C8.621094 5.199219 8.800781 5.019531 8.800781 4.800781 8.800781 4.578125 8.621094 4.398438 8.398438 4.398438zM8.398438 4.398438"/>
    <path d="M 21.121094 5.601562 L 20.800781 5.601562 L 20.800781 3.601562 L 14.398438 3.601562 L 14.398438 5.601562 L 14.078125 5.601562 C 13.59375 5.601562 13.199219 5.992188 13.199219 6.476562 L 13.199219 9.121094 C 13.199219 9.605469 13.59375 10 14.078125 10 L 14.398438 10 L 14.398438 18.199219 C 14.398438 19.9375 13.484375 21.550781 12 22.460938 C 10.5625 21.582031 9.601562 20.003906 9.601562 18.199219 L 9.601562 6.398438 L 9.921875 6.398438 C 10.40625 6.398438 10.800781 6.007812 10.800781 5.523438 L 10.800781 2.878906 C 10.800781 2.394531 10.40625 2 9.921875 2 L 9.601562 2 L 9.601562 0 L 3.199219 0 L 3.199219 2 L 2.878906 2 C 2.394531 2 2 2.394531 2 2.878906 L 2 5.519531 C 2 6.007812 2.394531 6.398438 2.878906 6.398438 L 3.199219 6.398438 L 3.199219 18.199219 C 3.199219 21.398438 5.800781 24 9 24 L 15.199219 24 C 15.222656 24 15.246094 23.992188 15.265625 23.988281 C 18.339844 23.84375 20.800781 21.308594 20.800781 18.199219 L 20.800781 10 L 21.121094 10 C 21.605469 10 22 9.605469 22 9.121094 L 22 6.480469 C 22 5.992188 21.605469 5.601562 21.121094 5.601562 Z M 15.199219 4.398438 L 16 4.398438 L 16 4.800781 C 16 5.019531 16.179688 5.199219 16.398438 5.199219 C 16.621094 5.199219 16.800781 5.019531 16.800781 4.800781 L 16.800781 4.398438 L 20 4.398438 L 20 5.601562 L 15.199219 5.601562 Z M 4 0.800781 L 4.800781 0.800781 L 4.800781 1.199219 C 4.800781 1.421875 4.980469 1.601562 5.199219 1.601562 C 5.421875 1.601562 5.601562 1.421875 5.601562 1.199219 L 5.601562 0.800781 L 8.800781 0.800781 L 8.800781 2 L 4 2 Z M 2.878906 5.601562 C 2.835938 5.601562 2.800781 5.566406 2.800781 5.523438 L 2.800781 2.878906 C 2.800781 2.835938 2.835938 2.800781 2.878906 2.800781 L 9.921875 2.800781 C 9.964844 2.800781 10 2.835938 10 2.878906 L 10 5.519531 C 10 5.566406 9.964844 5.601562 9.921875 5.601562 Z M 4 18.199219 L 4 6.398438 L 8.800781 6.398438 L 8.800781 18.199219 C 8.800781 20.136719 9.753906 21.851562 11.214844 22.902344 L 11.191406 22.917969 C 9.105469 22.207031 7.601562 20.238281 7.601562 17.914062 L 7.601562 9.601562 C 7.601562 9.378906 7.421875 9.199219 7.199219 9.199219 C 6.980469 9.199219 6.800781 9.378906 6.800781 9.601562 L 6.800781 17.914062 C 6.800781 19.914062 7.773438 21.6875 9.269531 22.796875 C 7.351562 22.003906 6 20.117188 6 17.914062 L 6 9.601562 C 6 9.378906 5.820312 9.199219 5.601562 9.199219 C 5.378906 9.199219 5.199219 9.378906 5.199219 9.601562 L 5.199219 17.914062 C 5.199219 20.125 6.386719 22.054688 8.152344 23.121094 C 5.800781 22.71875 4 20.667969 4 18.199219 Z M 20 18.199219 C 20 20.957031 17.757812 23.199219 15 23.199219 L 14.601562 23.199219 C 14.441406 23.199219 14.28125 23.191406 14.125 23.175781 C 14.039062 23.167969 13.957031 23.152344 13.871094 23.140625 C 13.804688 23.132812 13.734375 23.121094 13.667969 23.109375 C 13.5625 23.089844 13.457031 23.0625 13.351562 23.035156 C 13.308594 23.027344 13.265625 23.015625 13.226562 23.003906 C 13.109375 22.96875 12.996094 22.933594 12.882812 22.890625 C 12.863281 22.882812 12.847656 22.878906 12.828125 22.871094 C 14.308594 21.78125 15.199219 20.050781 15.199219 18.199219 L 15.199219 10 L 20 10 Z M 21.199219 9.121094 C 21.199219 9.164062 21.164062 9.199219 21.121094 9.199219 L 14.078125 9.199219 C 14.035156 9.199219 14 9.164062 14 9.121094 L 14 6.480469 C 14 6.433594 14.035156 6.398438 14.078125 6.398438 L 21.121094 6.398438 C 21.164062 6.398438 21.199219 6.433594 21.199219 6.476562 Z M 21.199219 9.121094"/>
    <path d="M19.601562 6.800781L15.601562 6.800781C15.378906 6.800781 15.199219 6.980469 15.199219 7.199219 15.199219 7.421875 15.378906 7.601562 15.601562 7.601562L19.601562 7.601562C19.820312 7.601562 20 7.421875 20 7.199219 20 6.980469 19.820312 6.800781 19.601562 6.800781zM19.601562 8L15.601562 8C15.378906 8 15.199219 8.179688 15.199219 8.398438 15.199219 8.621094 15.378906 8.800781 15.601562 8.800781L19.601562 8.800781C19.820312 8.800781 20 8.621094 20 8.398438 20 8.179688 19.820312 8 19.601562 8zM16.785156 21.90625C16.859375 21.96875 16.953125 22 17.042969 22 17.15625 22 17.269531 21.953125 17.347656 21.859375 18.285156 20.761719 18.800781 19.359375 18.800781 17.914062L18.800781 14.800781C18.800781 14.578125 18.621094 14.398438 18.398438 14.398438 18.179688 14.398438 18 14.578125 18 14.800781L18 17.914062C18 19.167969 17.550781 20.386719 16.738281 21.339844 16.597656 21.507812 16.617188 21.761719 16.785156 21.90625zM16.785156 21.90625"/>
    <path d="M 15.183594 21.90625 C 15.257812 21.96875 15.351562 22 15.445312 22 C 15.554688 22 15.667969 21.953125 15.746094 21.859375 C 16.683594 20.761719 17.199219 19.359375 17.199219 17.914062 L 17.199219 14.800781 C 17.199219 14.578125 17.019531 14.398438 16.800781 14.398438 C 16.578125 14.398438 16.398438 14.578125 16.398438 14.800781 L 16.398438 17.914062 C 16.398438 19.171875 15.953125 20.386719 15.140625 21.339844 C 14.996094 21.507812 15.015625 21.761719 15.183594 21.90625 Z M 15.183594 21.90625"/>
</svg>

<svg xmlns="http://www.w3.org/2000/svg" width="32" height="32" viewBox="0 0 24 24">
    <path d="M8.398 3.2h-4a.401.401 0 0 0 0 .8h4a.401.401 0 1 0 0-.8zm0 0M8.398 4.398h-4a.401.401 0 0 0 0 .801h4a.401.401 0 1 0 0-.8zm0 0"/>
    <path d="M21.121 5.602h-.32v-2h-6.403v2h-.32a.877.877 0 0 0-.879.875V9.12a.88.88 0 0 0 .88.879h.32v8.2A5.009 5.009 0 0 1 12 22.46a4.99 4.99 0 0 1-2.398-4.26V6.397h.32c.484 0 .879-.39.879-.875V2.88A.88.88 0 0 0 9.92 2h-.32V0H3.2v2h-.32A.88.88 0 0 0 2 2.879v2.64c0 .489.395.88.879.88h.32v11.8C3.2 21.4 5.801 24 9 24h6.2c.023 0 .046-.008.066-.012 3.074-.144 5.535-2.68 5.535-5.789V10h.32A.88.88 0 0 0 22 9.121v-2.64a.878.878 0 0 0-.879-.88zM15.2 4.398H16v.403a.4.4 0 0 0 .8 0v-.403H20v1.204h-4.8zM4 .801h.8v.398a.401.401 0 1 0 .802 0V.801H8.8V2H4zM2.879 5.6a.078.078 0 0 1-.078-.078V2.88c0-.043.035-.078.078-.078h7.043c.043 0 .078.035.078.078v2.64a.08.08 0 0 1-.078.083zM4 18.2V6.4h4.8v11.8c0 1.938.954 3.653 2.415 4.703l-.024.016a5.29 5.29 0 0 1-3.59-5.004V9.602a.401.401 0 0 0-.8 0v8.312c0 2 .972 3.773 2.469 4.883A5.285 5.285 0 0 1 6 17.914V9.602a.401.401 0 1 0-.8 0v8.312a6.08 6.08 0 0 0 2.952 5.207A5.003 5.003 0 0 1 4 18.2zm16 0c0 2.758-2.242 5-5 5h-.398c-.16 0-.32-.008-.477-.023-.086-.008-.168-.024-.254-.035a3.648 3.648 0 0 1-.203-.032c-.105-.02-.211-.047-.316-.074a1.169 1.169 0 0 1-.125-.031 5.054 5.054 0 0 1-.344-.113l-.055-.02A5.808 5.808 0 0 0 15.2 18.2V10H20zm1.2-9.078a.078.078 0 0 1-.079.078h-7.043A.078.078 0 0 1 14 9.121v-2.64a.08.08 0 0 1 .078-.083h7.043c.043 0 .078.036.078.079zm0 0"/>
    <path d="M19.602 6.8h-4a.401.401 0 1 0 0 .802h4a.401.401 0 0 0 0-.801zm0 0M19.602 8h-4a.401.401 0 1 0 0 .8h4a.401.401 0 0 0 0-.8zm0 0M16.785 21.906a.403.403 0 0 0 .563-.047 6.08 6.08 0 0 0 1.453-3.945v-3.113a.401.401 0 0 0-.8 0l-.001 3.113a5.29 5.29 0 0 1-1.262 3.426.406.406 0 0 0 .047.566zm0 0"/>
    <path d="M15.184 21.906a.406.406 0 0 0 .261.094c.11 0 .223-.047.301-.14a6.08 6.08 0 0 0 1.453-3.946v-3.113a.401.401 0 1 0-.8 0v3.113a5.279 5.279 0 0 1-1.258 3.426.402.402 0 0 0 .043.566zm0 0"/>
</svg>
